!!!COM: Palestrina, Giovanni Perluigi da
!!!OPR: Missa Tu es Petrus (1887)
!!!OMD: Credo
!!!OTL: Crucifixus
**kern	**kern	**kern	**kern
*Itenor	*Icalto	*Icant	*Icant
!Tenor	!Altus	!Cantus 2	!Cantus 1
*clefGv2	*clefG2	*clefG2	*clefG2
*k[]	*k[]	*k[]	*k[]
*G:mix	*G:mix	*G:mix	*G:mix
*M4/2	*M4/2	*M4/2	*M4/2
=63	=63	=63	=63
0G	0g	0dd	0b
=64	=64	=64	=64
1d	1f#	1dd	1a
1c	1g	1ee	1cc
=65	=65	=65	=65
2G	1g	2dd	2b
1c	.	1g	1ee
.	2c	.	.
2B	2d	2g	2dd
=66	=66	=66	=66
2A	1e	2a	2cc
2G	.	2b	2b
4F	2r	1cc	4a
4G	.	.	4b
4A	[2a	.	4cc
4B	.	.	4dd
=67	=67	=67	=67
4c	2a]	1cc	1ee
4d	.	.	.
4e	2g	.	.
4c	.	.	.
2d	2f	2a	2dd
2e	2e	2g	2cc
=68	=68	=68	=68
2f#	1d	2a	[0dd
1g	.	2b	.
.	1d	1a	.
2f#	.	.	.
=69	=69	=69	=69
2g	2r	1b	1dd]
2G	2g	.	.
2.c	2.e	1r	1r
4A	4f	.	.
=70	=70	=70	=70
2B	2g	0r	0r
2c	2e	.	.
4d	2.f	.	.
4c	.	.	.
4d	.	.	.
4e	4g	.	.
=71	=71	=71	=71
2f	4a	0r	1cc
.	4b	.	.
4e	1cc	.	.
8d	.	.	.
8c	.	.	.
1d	.	.	2.ff
.	2b	.	.
.	.	.	4dd
=72	=72	=72	=72
1c	1cc	2r	1.ee
.	.	2g	.
1r	1a	2.cc	.
.	.	.	2cc
.	.	4a	.
=73	=73	=73	=73
0r	2g	2b	2dd
.	2e	2cc	2ee
.	[1d	4dd	4ff
.	.	4cc	4ee
.	.	4dd	4dd
.	.	4ee	4cc
=74	=74	=74	=74
0r	2d]	2ff	2dd
.	2a	4ee	1cc
.	.	8dd	.
.	.	8cc	.
.	1g	1dd	.
.	.	.	2b
=75	=75	=75	=75
1f	2a	2cc	2cc
.	1a	1ff	1cc
1c	.	.	.
.	2g	[2ee	2cc
=76	=76	=76	=76
1d	1f	2ee]	1a
.	.	1dd	.
1A	2e	.	1a
.	[2a	2cc	.
=77	=77	=77	=77
2.B	4a]	1b	1dd
.	4g	.	.
.	1g	.	.
4c	.	.	.
2d	.	1a	1dd
2d	2f#	.	.
=78	=78	=78	=78
0G	1g	1b	1dd
.	2r	2r	2r
.	2g	2dd	2b
=79	=79	=79	=79
0r	2.c	2.ee	2.cc
.	4c	4ee	4cc
.	2c	2ee	2cc
.	2c	2ee	2cc
=80	=80	=80	=80
2r	2g	2.dd	2b
2d	2f#	.	2a
.	.	4cc	.
2.e	2g	2b	1g
.	4c	[2cc	.
4e	4d	.	.
=81	=81	=81	=81
2e	4e	4cc]	1g
.	4f	4b	.
2e	1g	4b	.
.	.	8a	.
.	.	8g	.
2.d	.	1a	1dd
.	2f	.	.
4c	.	.	.
=82	=82	=82	=82
2B	2d	0g	1r
2.c	2.e	.	.
.	.	.	2r
4B	4d	.	.
4B	2d	.	[2gg
8A	.	.	.
8G	.	.	.
=83	=83	=83	=83
1A	1c	2r	2gg]
.	.	1cc	2ff
1G	1g	.	2ee
.	.	2b	2dd
=84	=84	=84	=84
0r	2r	1a	4cc
.	.	.	4dd
.	1cc	.	4ee
.	.	.	4cc
.	.	1g	2.dd
.	2b	.	.
.	.	.	4ee
=85	=85	=85	=85
1r	2a	2cc	4ff
.	.	.	4ee
.	2g	2b	1ee
2r	1f	2.a	.
[2a	.	.	2dd
.	.	4b	.
=86	=86	=86	=86
2a]	1e	4cc	2ee
.	.	8b	.
.	.	8a	.
2g	.	4b	2ee
.	.	4cc	.
2f	2a	4dd	2ff
.	.	4cc	.
2e	2g	[2cc	[2gg
=87	=87	=87	=87
1d	2a	2cc]	4gg]
.	.	.	4ff
.	2f	2b	1ff
1c	1g	[1cc	.
.	.	.	2ee
=88	=88	=88	=88
1f	1a	1cc]	2ff
.	.	.	1cc
1r	1f	1a	.
.	.	.	2dd
=89	=89	=89	=89
0r	2g	2b	2.ee
.	2.a	2.cc	.
.	.	.	4ee
.	.	.	2ff
.	4a	4cc	.
.	2b	2dd	[2gg
=90	=90	=90	=90
1r	2.cc	1ee	4gg]
.	.	.	4ff
.	.	.	4ee
.	4b	.	4dd
1F	4a	4ff	4cc
.	4g	4ee	4b
.	4f	4dd	2a
.	4e	4cc	.
=91	=91	=91	=91
2G	2d	2b	2g
2.A	2c	1ee	1cc
.	1f	.	.
4A	.	.	.
2B	.	2dd	4b
.	.	.	4a
=92	=92	=92	=92
4c	1e	[0ee	2.g
4d	.	.	.
4e	.	.	.
4f	.	.	4a
4g	1r	.	2b
4e	.	.	.
[2a	.	.	2cc
=93	=93	=93	=93
2a]	1e	1ee]	1b
2g#	.	.	.
1a	2f	2r	1r
.	2f	2a	.
=94	=94	=94	=94
0r	2.e	2b	2r
.	.	2cc	2ee
.	4e	.	.
.	2d	2.dd	2ff
.	4f	.	2ff
.	4g	4dd	.
=95	=95	=95	=95
0r	4a	1cc	2.ee
.	4b	.	.
.	1cc	.	.
.	.	.	4ee
.	.	1g	2dd
.	4b	.	4gg
.	4a	.	4ff
=96	=96	=96	=96
1e	2b	1g	4ee
.	.	.	4dd
.	2.cc	.	4cc
.	.	.	4b
2f	.	1r	4a
.	4b	.	4b
2f	[2a	.	4cc
.	.	.	4a
=97	=97	=97	=97
2.e	2a]	1ee	2.b
.	2g	.	.
4e	.	.	4cc
4d	1a	2ff	4dd
4e	.	.	4cc
4f	.	2ff	[2dd
4g	.	.	.
=98	=98	=98	=98
2.a	0r	2.ee	4dd]
.	.	.	4cc
.	.	.	1cc
4g	.	4ee	.
2f	.	1dd	.
2g	.	.	2b
=99	=99	=99	=99
2c	2r	1ee	2cc
2c	2e	.	2g
2.A	2.a	1ee	2.cc
4A	4a	.	4cc
=100	=100	=100	=100
2A	2a	2r	2cc
2A	2cc	2ee	2a
2G#	2b	2.ee	2b
2A	2a	.	2cc
.	.	4ee	.
=101	=101	=101	=101
1e	1g#	2ee	1b
.	.	2ee	.
2r	2r	2dd	2r
2A	2a	2cc	2ee
=102	=102	=102	=102
2.e	2.g#	1b	2.ee
4e	4g#	.	4ee
2e	2g#	2r	2ee
[2A	[2a	2a	[2cc
=103	=103	=103	=103
2A]	2a]	2.ee	2cc]
2G#	2b	.	2b
.	.	4ee	.
1A	1cc	2ee	2a
.	.	[2a	2ee
=104	=104	=104	=104
1e	1b	2a]	2.ee
.	.	2g#	.
.	.	.	4dd
1f	2r	1a	4cc
.	.	.	4b
.	[2a	.	[2cc
=105	=105	=105	=105
1e	4a]	1ee	2cc]
.	4g	.	.
.	2g	.	2b
1d	2.a	1ff	1dd
.	4b	.	.
=106	=106	=106	=106
1.c	2cc	2ee	1.g
.	2c	2ee	.
.	2.e	2.cc	.
2c	.	.	2g
.	4e	4cc	.
=107	=107	=107	=107
1G	1d	1b	1g
1r	1r	1r	1r
=108	=108	=108	=108
2r	2r	2r	2r
1G	1g	1dd	1b
2G	2g	2dd	2b
=109	=109	=109	=109
1c	1g	1ee	1cc
2G	2g	1dd	2b
2g	2g	.	2b
=110	=110	=110	=110
2f	2a	1r	2cc
2d	2b	.	2dd
1c	4cc	2r	4ee
.	4b	.	4dd
.	4a	2ee	4cc
.	4g	.	4b
=111	=111	=111	=111
2d	2f#	2dd	2a
2e	1g	2cc	2g
1d	.	1dd	1a
.	2f#	.	.
=112	=112	=112	=112
2r	2g	2dd	2b
1c	1g	1ee	1cc
2c	2g	2ee	2cc
=113	=113	=113	=113
1f	1a	1ff	1cc
1c	1g	1ee	2cc
.	.	.	[2g
=114	=114	=114	=114
1c	1e	0r	2g]
.	.	.	2a
2d	2f	.	2b
2e	2g	.	[2cc
=115	=115	=115	=115
1.f	1a	1cc	4cc]
.	.	.	4b
.	.	.	4a
.	.	.	4g
.	2d	2dd	2a
2e	2g	2ee	4b
.	.	.	4cc
=116	=116	=116	=116
1d	2a	1ff	1dd
.	2b	.	.
1c	4cc	1ee	2g
.	4b	.	.
.	4a	.	2cc
.	4g	.	.
=117	=117	=117	=117
0d	2f#	[0dd	2a
.	1g	.	2b
.	.	.	1a
.	2f#	.	.
=118	=118	=118	=118
0G	0g	0dd]	0b
*-	*-	*-	*-
!!!CDT: 1525/^1526/-1594/2/2
!!!OCY: Italia
!!!AGN: Mass (Parody)
!!!AST: renaissance, vocal
!!!ASW: Motet 1572 (Palestrina)
!!!PWK: Masses, Book 11
!!!RNB: Cadence finals: C,D
!!!YOR: Le Opere Complete, v. 28, p. 268
!!!YOO: Rome, Italy: Fratelli Scalera
!!!END: 1992//
!!!EED: John Miller
!!!YEC: Copyright 2000, John Miller
!!!YEN: United States of America
!!!YEM: Rights to all derivative electronic formats reserved.
!!!YEM: Refer to licensing agreement for further details.
!!!YEM: This file must be accompanied by the licensing agreement.
!!!YEM: A copy of the licensing agreement may be found at http://www.music-cog.ohio-state.edu/HumdrumDatabases/Palestrina/license.txt
!!!EMD: converted to Humdrum by Bret Aarden
